!!!OTL: Druimfhionn Donn Dílis, S. 143
!!!id: I0553
**kern
*clefG2
*k[]
*C:
{8e
8f
=1
4g
4g
4cc
=2
4cc
4dd
8ee
8cc
=3
4dd
4b
4g
=4
2g}
=5
{8g
8a
=6
4b
4g
4g
=7
4b
4cc
8dd
8cc
=8
4b
4g
4f
=9
2d}
=10
{8d
8f
=11
4e
4d
4c
=12
4c
4d
8g
8a
=13
4b
4a
4g
=14
2d}
=15
{8b
8cc
=16
4dd
4cc
4b
=17
4g
4a
8b
8g
=18
4f
4d
4c
=19
2c}
==
*-
!!!minrhy: 8
!!!meters: 3/4 ]  ZZ[4
!!!cut: Druimfhionn Donn Dílis, S. 143
!!!reg: Irland
!!!trd: O'SULLIVAN, Donal: Song of the Irish
!!!rhy1: XX  X_X_X_  X_X_XX  X_X_X_  X__
!!!rhy2: XX  X_X_X_  X_X_XX  X_X_X_  X__
!!!key: I0553  08  C 3/4 ]  ZZ[4
!!!mod: HEPTATONIK IONISCH]  AMBITUS[10
!!!kad: 5221
!!!akz: 5+1+25_7772_3172_+2541_
!!!fot: 'a__b__c__d__
!!!for: 'a__a__a__a__
!!!fok: '^a_^d_^__Md_
!! PHRAS[AUFTAKTIG]
!!!fkt: Heimatlied
!! IRISCHE V
!! PR[10] 2K[2] 2G[29] 3K[6] 3G[0] 4A[1] 4Ü[0] 5A[2] 6K[3] 6G[0]
!! 7K[0] 7G[0] 8A[0] MEHR[0] SI[44] ABS[96] SR[31] SP[13]
!! ST[16] 2k[6] 2g[27] 3k[6] 3g[4] 4d[1] 4ü[0] 5d[0] 6k[0] 6g[0]
!! 7k[0] 7g[0] 8d[0] mehr[1] si[46] dm[-2] sr[33] sp[13]
!! 1F[10] 2F[55] 3F[13] 4F[3] LF[0] 2P[10] 3P[5] 4P[0] TRI[0] DF[7] AB[97]
!! TF[0] U3K[0] U3[0] U4[0] U4Ü[0] U5[3] U6K[0] U6[3] U7K[0] U7[0]
!! N1[20] N2K[0] N2[18] N3K[0] N3[16] N4[0] N4Ü[0] N5[14] N6K[0] N6[8]
!!!n7k: 0] N7[8] O1[8] O2K[0] O2[1] O3K[0] O3[0] HÖ[0
